dist/img/svgs/ghub2.svg

<?xml version="1.0" encoding="UTF-8" standalone="no"?>
<svg
   xmlns:dc="http://purl.org/dc/elements/1.1/"
   xmlns:cc="http://creativecommons.org/ns#"
   xmlns:rdf="http://www.w3.org/1999/02/22-rdf-syntax-ns#"
   xmlns:svg="http://www.w3.org/2000/svg"
   xmlns="http://www.w3.org/2000/svg"
   xmlns:sodipodi="http://sodipodi.sourceforge.net/DTD/sodipodi-0.dtd"
   xmlns:inkscape="http://www.inkscape.org/namespaces/inkscape"
   enable-background="new -1163 1657.697 56.693 56.693"
   height="56.693px"
   id="Layer_1"
   version="1.1"
   viewBox="-1163 1657.697 56.693 56.693"
   width="56.693px"
   xml:space="preserve"
   sodipodi:docname="ghub2.svg"
   inkscape:version="0.92.4 (unknown)"><metadata
     id="metadata1145"><rdf:RDF><cc:Work
         rdf:about=""><dc:format>image/svg+xml</dc:format><dc:type
           rdf:resource="http://purl.org/dc/dcmitype/StillImage" /></cc:Work></rdf:RDF></metadata><defs
     id="defs1143" /><sodipodi:namedview
     pagecolor="#ffffff"
     bordercolor="#666666"
     borderopacity="1"
     objecttolerance="10"
     gridtolerance="10"
     guidetolerance="10"
     inkscape:pageopacity="0"
     inkscape:pageshadow="2"
     inkscape:window-width="1861"
     inkscape:window-height="1025"
     id="namedview1141"
     showgrid="false"
     inkscape:zoom="10.52684"
     inkscape:cx="42.36953"
     inkscape:cy="24.204617"
     inkscape:window-x="59"
     inkscape:window-y="27"
     inkscape:window-maximized="1"
     inkscape:current-layer="Layer_1" /><g
     id="g1138"
     style="fill:#f7f7f7;fill-opacity:1"
     transform="matrix(1.1400615,0,0,1.1400615,158.95297,-237.2661)"><path
       d="m -1134.6598,1662.9163 c -13.601,0 -24.63,11.0267 -24.63,24.6299 0,10.8821 7.0573,20.1144 16.8435,23.3713 1.2308,0.2279 1.6829,-0.5345 1.6829,-1.1849 0,-0.587 -0.023,-2.5276 -0.033,-4.5857 -6.8521,1.4901 -8.2979,-2.906 -8.2979,-2.906 -1.1205,-2.8467 -2.7347,-3.6039 -2.7347,-3.6039 -2.2349,-1.5287 0.1685,-1.4972 0.1685,-1.4972 2.473,0.1737 3.7755,2.5385 3.7755,2.5385 2.1967,3.7651 5.7618,2.6765 7.1675,2.0472 0.2211,-1.5917 0.8591,-2.6786 1.5637,-3.2936 -5.4707,-0.6226 -11.2218,-2.7347 -11.2218,-12.1722 0,-2.6888 0.9623,-4.8861 2.538,-6.611 -0.2557,-0.6206 -1.0989,-3.1255 0.2386,-6.5183 0,0 2.0684,-0.6616 6.7747,2.525 1.9648,-0.5458 4.0719,-0.8195 6.165,-0.829 2.093,0.01 4.2017,0.2832 6.17,0.829 4.7012,-3.1866 6.7665,-2.525 6.7665,-2.525 1.3406,3.3928 0.4974,5.8977 0.2417,6.5183 1.5793,1.7249 2.5348,3.9221 2.5348,6.611 0,9.4602 -5.7618,11.5428 -11.2465,12.1527 0.8834,0.7644 1.6704,2.2632 1.6704,4.561 0,3.2955 -0.028,5.9479 -0.028,6.7592 0,0.6556 0.4432,1.4236 1.6915,1.1818 9.7812,-3.2605 16.8296,-12.4896 16.8296,-23.3682 0,-13.6032 -11.0275,-24.6299 -24.6299,-24.6299 z"
       id="path1122"
       style="clip-rule:evenodd;fill:#f7f7f7;fill-opacity:1;fill-rule:evenodd"
       inkscape:connector-curvature="0" /><path
       d="m -1149.9611,1698.2793 c -0.054,0.1227 -0.2469,0.1593 -0.4222,0.075 -0.1788,-0.08 -0.2788,-0.2473 -0.2211,-0.37 0.053,-0.126 0.2457,-0.161 0.4242,-0.077 0.1789,0.081 0.2809,0.2489 0.2191,0.3716 z m -0.3031,-0.2246"
       id="path1124"
       style="fill:#f7f7f7;fill-opacity:1"
       inkscape:connector-curvature="0" /><path
       d="m -1148.9634,1699.3922 c -0.1174,0.1086 -0.3473,0.058 -0.5031,-0.1139 -0.1613,-0.1718 -0.1912,-0.4016 -0.072,-0.5118 0.1211,-0.1088 0.3438,-0.058 0.505,0.1139 0.1614,0.1737 0.1928,0.4015 0.07,0.5118 z m -0.235,-0.2522"
       id="path1126"
       style="fill:#f7f7f7;fill-opacity:1"
       inkscape:connector-curvature="0" /><path
       d="m -1147.9922,1700.8105 c -0.151,0.1051 -0.3979,0.01 -0.5505,-0.2123 -0.151,-0.2191 -0.151,-0.4819 0,-0.5872 0.1526,-0.1051 0.396,-0.01 0.5505,0.2068 0.1506,0.2228 0.1506,0.4856 0,0.5927 z m 0,0"
       id="path1128"
       style="fill:#f7f7f7;fill-opacity:1"
       inkscape:connector-curvature="0" /><path
       d="m -1146.6619,1702.1812 c -0.1351,0.1489 -0.4227,0.1086 -0.6329,-0.094 -0.2155,-0.1984 -0.2753,-0.4803 -0.1403,-0.6293 0.1371,-0.149 0.4263,-0.1072 0.6381,0.094 0.2139,0.1983 0.2788,0.4819 0.1351,0.6294 z m 0,0"
       id="path1130"
       style="fill:#f7f7f7;fill-opacity:1"
       inkscape:connector-curvature="0" /><path
       d="m -1144.8265,1702.9769 c -0.06,0.1927 -0.3365,0.2804 -0.6154,0.1984 -0.2788,-0.085 -0.4608,-0.3103 -0.4047,-0.5051 0.058,-0.1943 0.3361,-0.2855 0.6169,-0.1979 0.2785,0.084 0.4609,0.3082 0.4032,0.5046 z m 0,0"
       id="path1132"
       style="fill:#f7f7f7;fill-opacity:1"
       inkscape:connector-curvature="0" /><path
       d="m -1142.8107,1703.1243 c 0.01,0.2031 -0.2299,0.3716 -0.5226,0.3752 -0.2944,0.01 -0.533,-0.1577 -0.5361,-0.3577 0,-0.2052 0.2313,-0.3717 0.5258,-0.3768 0.2927,-0.01 0.5329,0.1577 0.5329,0.3593 z m 0,0"
       id="path1134"
       style="fill:#f7f7f7;fill-opacity:1"
       inkscape:connector-curvature="0" /><path
       d="m -1140.9351,1702.8052 c 0.035,0.198 -0.1686,0.4015 -0.4594,0.4557 -0.2859,0.053 -0.5504,-0.07 -0.587,-0.2665 -0.035,-0.2031 0.1716,-0.4066 0.4573,-0.4592 0.2912,-0.051 0.552,0.068 0.5891,0.27 z m 0,0"
       id="path1136"
       style="fill:#f7f7f7;fill-opacity:1"
       inkscape:connector-curvature="0" /></g></svg>

<?xml version="1.0" ?><svg enable-background="new -1163 1657.697 56.693 56.693" height="56.693px" id="Layer_1" version="1.1" viewBox="-1163 1657.697 56.693 56.693" width="56.693px" xml:space="preserve" xmlns="http://www.w3.org/2000/svg" xmlns:xlink="http://www.w3.org/1999/xlink"><g><path clip-rule="evenodd" d="M-1134.6598,1662.9163c-13.601,0-24.63,11.0267-24.63,24.6299   c0,10.8821,7.0573,20.1144,16.8435,23.3713c1.2308,0.2279,1.6829-0.5345,1.6829-1.1849c0-0.587-0.0227-2.5276-0.0334-4.5857   c-6.8521,1.4901-8.2979-2.906-8.2979-2.906c-1.1205-2.8467-2.7347-3.6039-2.7347-3.6039   c-2.2349-1.5287,0.1685-1.4972,0.1685-1.4972c2.473,0.1737,3.7755,2.5385,3.7755,2.5385c2.1967,3.7651,5.7618,2.6765,7.1675,2.0472   c0.2211-1.5917,0.8591-2.6786,1.5637-3.2936c-5.4707-0.6226-11.2218-2.7347-11.2218-12.1722c0-2.6888,0.9623-4.8861,2.538-6.611   c-0.2557-0.6206-1.0989-3.1255,0.2386-6.5183c0,0,2.0684-0.6616,6.7747,2.525c1.9648-0.5458,4.0719-0.8195,6.165-0.829   c2.093,0.0095,4.2017,0.2832,6.17,0.829c4.7012-3.1866,6.7665-2.525,6.7665-2.525c1.3406,3.3928,0.4974,5.8977,0.2417,6.5183   c1.5793,1.7249,2.5348,3.9221,2.5348,6.611c0,9.4602-5.7618,11.5428-11.2465,12.1527c0.8834,0.7644,1.6704,2.2632,1.6704,4.561   c0,3.2955-0.0282,5.9479-0.0282,6.7592c0,0.6556,0.4432,1.4236,1.6915,1.1818c9.7812-3.2605,16.8296-12.4896,16.8296-23.3682   C-1110.0299,1673.943-1121.0574,1662.9163-1134.6598,1662.9163z" fill-rule="evenodd"/><path d="M-1149.9611,1698.2793c-0.0542,0.1227-0.2469,0.1593-0.4222,0.0753c-0.1788-0.0804-0.2788-0.2473-0.2211-0.37   c0.053-0.126,0.2457-0.161,0.4242-0.0769C-1150.0013,1697.9882-1149.8993,1698.1566-1149.9611,1698.2793L-1149.9611,1698.2793z    M-1150.2642,1698.0547"/><path d="M-1148.9634,1699.3922c-0.1174,0.1086-0.3473,0.0581-0.5031-0.1139c-0.1613-0.1718-0.1912-0.4016-0.072-0.5118   c0.1211-0.1088,0.3438-0.0579,0.505,0.1139C-1148.8721,1699.0541-1148.8407,1699.2819-1148.9634,1699.3922L-1148.9634,1699.3922z    M-1149.1984,1699.14"/><path d="M-1147.9922,1700.8105c-0.151,0.1051-0.3979,0.0067-0.5505-0.2123c-0.151-0.2191-0.151-0.4819,0.0035-0.5872   c0.1526-0.1051,0.396-0.0104,0.5505,0.2068C-1147.8381,1700.4406-1147.8381,1700.7034-1147.9922,1700.8105L-1147.9922,1700.8105z    M-1147.9922,1700.8105"/><path d="M-1146.6619,1702.1812c-0.1351,0.1489-0.4227,0.1086-0.6329-0.0945c-0.2155-0.1984-0.2753-0.4803-0.1403-0.6293   c0.1371-0.149,0.4263-0.1072,0.6381,0.0944C-1146.5831,1701.7501-1146.5182,1702.0337-1146.6619,1702.1812L-1146.6619,1702.1812z    M-1146.6619,1702.1812"/><path d="M-1144.8265,1702.9769c-0.0597,0.1927-0.3365,0.2804-0.6154,0.1984c-0.2788-0.0845-0.4608-0.3103-0.4047-0.5051   c0.0577-0.1943,0.3361-0.2855,0.6169-0.1979C-1144.9512,1702.5563-1144.7688,1702.7805-1144.8265,1702.9769L-1144.8265,1702.9769z    M-1144.8265,1702.9769"/><path d="M-1142.8107,1703.1243c0.0067,0.2031-0.2299,0.3716-0.5226,0.3752c-0.2944,0.0067-0.533-0.1577-0.5361-0.3577   c0-0.2052,0.2313-0.3717,0.5258-0.3768C-1143.0509,1702.7594-1142.8107,1702.9227-1142.8107,1703.1243L-1142.8107,1703.1243z    M-1142.8107,1703.1243"/><path d="M-1140.9351,1702.8052c0.035,0.198-0.1686,0.4015-0.4594,0.4557c-0.2859,0.0526-0.5504-0.0701-0.587-0.2665   c-0.0354-0.2031,0.1716-0.4066,0.4573-0.4592C-1141.233,1702.4846-1140.9722,1702.6036-1140.9351,1702.8052L-1140.9351,1702.8052z    M-1140.9351,1702.8052"/></g></svg>
